X:1
T:Gloria in Excelsis Deo (Glory to God in the Highest)
C:Ancient Latin doxology, 4th century
S:Traditional Lutheran liturgy; public domain
M:C
L:1/4
K:C
G A B c | d c B A | G4 | c c d c | B A G A | A4 |
G A G F | E F G E | E2 D2 | D E F G | A G F E | D4 |
G G G A | G F E D | C4 ||

## Musiquik
&0VWXY.ZYXW.v.YYZY.XWVW.w.VWVU.TUVT.dc.STUV.WVUT.s.VVVW.VUTS.r)

#Lyrics
Glory to God in the highest, and peace to His people on earth. Lord God, heavenly King, almighty God and Father, we worship You, we give You thanks, we praise You for Your glory. Lord Jesus Christ, only Son of the Father, Lord God, Lamb of God, You take away the sin of the world: have mercy on us; You are seated at the right hand of the Father: receive our prayer. For You alone are the Holy One, You alone are the Lord, You alone are the Most High, Jesus Christ, with the Holy Spirit, in the glory of God the Father. Amen.

#Citations and References

Words: Ancient Latin liturgical doxology, 4th century; public domain.
Music: 'Gloria in Excelsis' Traditional Lutheran chant; ancient, public domain.
Setting: Lutheran Service Book (LSB), Divine Service; traditional.
copyright: public domain. Also listed as item 6.2.2 in this project.

https://openhymnal.org
